X: 1
T: John's Journey
C: by Bruce Sagan
O: loosely based on the sea shanty Leave Her, Johnny
S: https://app.box.com/s/u6iiren0igvsukrhdducy7orq72jayq8/file/884705917746 2021-11-14
R: march, air
Z: 2022 John Chambers <jc:trillian.mit.edu>
M: 2/4
L: 1/8
K: G
GA |\
"G"B3B BAGB | "D"A2GF "G"G2Bd | "C"e3e efge | e2 "D"d4 Bd |
"C"e3e "G"d2cB | "D"A2GF "Em"E2D2 |1 "Am"C3D EFGB "D"A6 :|2 "C"EFGB "D"A2GF | "G"G6 ||
|: BG |\
"D"A3A A2GA | "G"Bc d4 gf | "C"e3e efgb | "D"a6 gf |
"C"efge "G"d2cB | "Am"cdec "Em"B2AG | "C"EFGB "D"A2GF | "G"G6 :|

%%sep 2 1 500

